X: 1339
T: Charlie Over The Water
B: australian traditional tunes wiki
M:6/8
L:1/8
R: Jig
Q: 3/8=100
K:D
V:1 
A|:"D"dcd A3|"Bm"dcdB3|"G"Bed cBA|"A7"GFG AFD|
"D"dcd A3|"Bm"dcd f3|"G"Bed "A7"cfe|"D"d3-d2A:|
|:"Em"e2Be2B|e2Be3|"Bm"fed ede|"D"dcBc2d|
"Em"e2Be2B|e2Be3|1"Bm"fed "D"cdB|"A7"A6:|2"Bm"fed "D"ABc|d6||
% abcbook-tune_id 6342d53a3e3762db17de1575


% abcbook-boost 0
% abcbook-tablature 
% abcbook-transpose 
% abcbook-lastupdated 1665324360046
% abcbook-soundfonts 
% abcbook-repeats 1
% NFF Book 2006

